src/images/icons/geo-gray.svg

<svg width="18" height="18" viewBox="0 0 18 18" fill="none" xmlns="http://www.w3.org/2000/svg">
<path fill-rule="evenodd" clip-rule="evenodd" d="M3.75 7.61114C3.75 5.77284 4.41985 4.45155 5.37837 3.58376C6.34965 2.70441 7.66357 2.25 9 2.25C10.3364 2.25 11.6504 2.70443 12.6216 3.58378C13.5801 4.45157 14.25 5.77286 14.25 7.61114C14.25 10.4035 12.2803 12.8024 10.5788 14.3355C10.0918 14.7743 9.95229 14.8926 9.55438 15.0128C9.46887 15.0386 9.26309 15.0664 9.00015 15.0664C8.73721 15.0664 8.53144 15.0387 8.44593 15.0128C8.04802 14.8926 7.90848 14.7744 7.42148 14.3356C5.71989 12.8025 3.75 10.4035 3.75 7.61114ZM15.75 7.61114C15.75 5.37534 14.9199 3.64106 13.6284 2.4718C12.3496 1.31411 10.6636 0.750004 9 0.75C7.33643 0.749996 5.65035 1.31409 4.37163 2.47179C3.08015 3.64104 2.25 5.37532 2.25 7.61114C2.25 11.0786 4.65269 13.86 6.41742 15.45L6.44154 15.4717C6.92695 15.9092 7.28042 16.2277 8.01221 16.4488C8.30471 16.5371 8.68103 16.5664 9.00018 16.5664C9.31933 16.5664 9.69565 16.5371 9.98815 16.4487C10.7199 16.2277 11.0734 15.9091 11.5588 15.4716L11.5588 15.4716L11.5829 15.4499C13.3475 13.8599 15.75 11.0786 15.75 7.61114ZM7.5 7.5C7.5 6.67157 8.17157 6 9 6C9.82843 6 10.5 6.67157 10.5 7.5C10.5 8.32843 9.82843 9 9 9C8.17157 9 7.5 8.32843 7.5 7.5ZM9 4.5C7.34315 4.5 6 5.84315 6 7.5C6 9.15685 7.34315 10.5 9 10.5C10.6569 10.5 12 9.15685 12 7.5C12 5.84315 10.6569 4.5 9 4.5Z" fill="#8FA4B3"/>
</svg>

<svg width="18" height="18" fill="none" xmlns="http://www.w3.org/2000/svg"><path fill-rule="evenodd" clip-rule="evenodd" d="M3.75 7.611c0-1.838.67-3.16 1.628-4.027C6.35 2.704 7.664 2.25 9 2.25c1.336 0 2.65.454 3.622 1.334.958.868 1.628 2.189 1.628 4.027 0 2.792-1.97 5.191-3.671 6.724-.487.44-.627.558-1.025.678a2.293 2.293 0 0 1-.554.053c-.263 0-.469-.027-.554-.053-.398-.12-.538-.239-1.025-.677C5.72 12.802 3.75 10.403 3.75 7.61Zm12 0c0-2.236-.83-3.97-2.122-5.14C12.35 1.315 10.664.75 9 .75c-1.664 0-3.35.564-4.628 1.722C3.08 3.64 2.25 5.375 2.25 7.612c0 3.467 2.403 6.248 4.167 7.838l.025.022c.485.437.838.756 1.57.977.293.088.669.117.988.117.32 0 .696-.029.988-.117.732-.221 1.085-.54 1.57-.977l.025-.022c1.764-1.59 4.167-4.371 4.167-7.839ZM7.5 7.5a1.5 1.5 0 1 1 3 0 1.5 1.5 0 0 1-3 0Zm1.5-3a3 3 0 1 0 0 6 3 3 0 0 0 0-6Z" fill="#8FA4B3"/></svg>
